X: 142
T:SONNOUS
M:4/4
L:1/4
Q:1/4=60
Z:Yves BELOTTEAU
K:G
|GGd2 dcB2|Bcdc BABG|GGd2 dcB2|Bcdc BAG2|
GBAc BAdd|GBAc BAG2|GBAc BAdd|GBAc BAG2|
W:
W: From "Falaleiro" http://home.t-online.de/home/pheld/homepage.htm

